!!!COM: Stefani, Giovanni ?
!!!CDT:
!!!PTL: Scherzi amorosi. Canzonette ad una voce sola. Libro secondo
!!!PPP: Venice
!!!PPR: Giacomo Vincenzi
!!!PDT: 1620
!!!PUB-format: anthology
!!!RISM:
!!!rime: 361
!!!OTL: Io son la Primavera
!!!AGN: Madrigal
!!!SCT: Trm0361c
!!!SCA: Trm0361c
!!!original-voices: 1+bc+alfabeto
!!!extant-voices: 1+bc+alfabeto
!!!complete: Y
!!!final: F
**kern	**kern	**text	**cdata
*part2	*part1	*part1	*
*staff2	*staff1	*staff1	*
*>[A,A,B,B]	*>[A,A,B,B]	*>[A,A,B,B]	*>[A,A,B,B]
*>norep[A,B]	*>norep[A,B]	*>norep[A,B]	*>norep[A,B]
*I"B.C.	*	*I" 	*
*I'B.C.	*	*I' 	*
*oclefF4	*oclefC1	*	*
*clefF4	*clefG2	*	*
*k[b-]	*k[b-]	*	*
*F:	*F:	*	*
*omet(C)	*omet(C)	*	*
*M4/2	*M4/2	*	*
*>A	*>A	*>A	*>A
=1	=1	=1	=1
2r	2r	.	.
2F	4cc	Io	G
.	2cc	son	.
2F	.	.	.
.	4cc	la	.
4D	4dd	Pri-	E
4C	4ee	-ma-	B
=2	=2	=2	=2
1BB-y	2ff	-ve-	H
.	2ff	-ra,	.
2BB-y	4r	.	.
.	4dd	Che	.
2C	2cc	lie-	B
=3	=3	=3	=3
4C	4ee-X	-ta, o	L
2GG	2dd	va-	O
4GG	4cc	-ghe	.
2.C	2.cc	Don-	B
4D	4a	-ne, a	C
=4	=4	=4	=4
4AA	4cc	voi	D
4BB-y	4a	ri-	H
2C	2g	-tor-	B
1FF	1f	-no	G
=5:|!|:	=5:|!|:	=5:|!|:	=5:|!|:
*>B	*>B	*>B	*>B
2E-X	2b-y	Col	M
4E-i	4b-y	mio	.
4D	4dd	bel	E
2F	4.cc	man-	G
.	8b-y	-to a-	.
2BB-y	2b-y	-dor-	H
=6	=6	=6	=6
2BB-y	2b-y	-no	.
4F	4cc	Per	G
4D	4dd	ve-	E
2G	2b-y	-stir	A
4G	4b-y	le	.
4A	4cc	cam-	I
=7	=7	=7	=7
2B-y	2.dd	-pa-	H
2A	.	.	.
.	4cc#X	.	I
1D	[1dd	-gne	C
!!LO:TX:a:cj:t=[whole] &rarr; [whole-dot]
=8	=8	=8	=8
*M3/2	*M3/2	*	*
*omet(3)	*omet(3)	*	*
2B-y	2dd]	.	.
2B-y	2dd	d'her-	H
2A	2ccnXi	-be e	D
=9	=9	=9	=9
1.G	1.b-y	fio-	O
=10	=10	=10	=10
1F	2a	-ri,	G
.	2a	E	.
2F	2a	sve-	.
=11	=11	=11	=11
1E-X	2g	-gliar-	M
.	2g	-vi	.
2E-i	2g	nel	.
=12	=12	=12	=12
1D	2f	cor,	E
.	2ff	E	.
2D	2ff	sve-	.
=13	=13	=13	=13
!	!LO:TX:a:t=a5.	!	!
1C	2ee-X	-gliar-	K
.	2ee-i	-vi	.
2C	2ee-i	nel	.
=14	=14	=14	=14
1BB-y	1dd	cor	H
2F	2cc	no-	G
=15	=15	=15	=15
1F	2.cc	-vel-	.
.	4dd	-li a-	.
2G	2dd	-mo-	A
=16	=16	=16	=16
1.C	2cc	-ri,	B
.	2cc	E	.
.	2cc	sve-	.
=17	=17	=17	=17
1G	2b-y	-gliar-	O
.	2b-y	-vi	.
2G	2b-y	nel	.
=18	=18	=18	=18
1.F	1.a	cor	G
=19	=19	=19	=19
2BB-y	2g	no-	H
2C	2g	-vel-	B
2D	2g	-li a-	E
=20	=20	=20	=20
1.C	1.g	-mo-	B
=21	=21	=21	=21
1.FFl	1.fl	-ri.	G
==	==	==	==
*-	*-	*-	*-
!!!system-decoration: [*]
!!!RDF**kern: i = editorial accidental
!!!RDF**kern: l = terminal long
!!!ENC: Emiliano Ricciardi
!!!END: 2019
!!!EED: Schleuse, Paul
!!!EEV: 2019/02/06
!!!YEC: Copyright 2018 Emiliano Ricciardi, All Rights Reserved
!!!ONB: Translated from MusicXML on 2019/02/06 and edited by Craig Stuart Sapp
!!
!! Second verse:
!!	A me Zeffiro spira,
!!	A me ride la terra, e'l ciel sereno;
!!	Volan di seno in seno
!!	Amoretti vezzosi a mille a mille,
!!	Chi armato di stral, chi di faville.
!!
!! Third verse:
!!	E voi ancor gioite,
!!	Godete al mio venir fra risi, e canti:
!!	Amate i vostri Amanti.
!!	Hor ch'il bel viso amato April v'infiora
!!	Primavera per voi ogn'hor non torna.
!!
!!@@BEGIN:	VERSEDATA
!!@SOLERTI:	361
!!@CATALOGNUM:	Trm0361
!!@LAST_MODIFIED: 2020/07/12
!!@TITLE:		Io son la Primavera
!!@GENRE:		canzonetta
!!@MANUSRC:	Flc<sub>2</sub>
!!@PRINTSRC:	none
!!@@BEGIN:	VERSES
!!@ABOUTIT:
!!@ABOUTEN:
!!@EDITOR:	Solerti, Angelo
!!@EDITION_TITLE: Le Rime di Torquato Tasso
!!@EDITION_LOC:	Bologna
!!@EDITION_PUB:	Romagnoli-Dall’Acqua
!!@EDITION_DATE:  1898-1902
!!@EDITION_VOL:	2
!!@EDITION_PAGE:  396
!!@TRANSLATOR:	Maria Pastore Passaro; adapted by Emiliano Ricciardi and Amyrose McCue Gill
!!@VERSE:
!!	Io son la Primavera,
!!	Che lieta, o vaghe donne, a voi ritorno
!!	Col mio bel manto adorno
!!	Per vestir le campagne d'erbe e fiori
!!	E svegliarvi nel cor novelli amori.
!!@VERSE:
!!	A me Zeffiro spira,
!!	A me ride la terra e 'l ciel sereno;
!!	Volan di seno in seno
!!	Gli Amoretti vezzosi a mille mille,
!!	Chi armato di stral, chi di faville.
!!@VERSE:
!!	E voi ancor gioite,
!!	Godete al mio venir tra risi e canti;
!!	Amate i vostri amanti
!!	Or che 'l bel viso amato april v'infiora:
!!	Primavera per voi non torna ognora.
!!@TVERSE:
!!	I am Spring,
!!	Who happy, o lovely ladies, returns to you
!!	With my beautiful mantle adorned
!!	To dress the countryside with grasses and flowers
!!	And to waken in your hearts young loves.
!!@TVERSE:
!!	Towards me Zephyr blows,
!!	Towards me smiles the earth and the clear sky;
!!	They fly from breast to breast,
!!	The charming Cupids by thousands and thousands,
!!	Some armed with arrows, some with sparks.
!!@TVERSE:
!!	And you still rejoice,
!!	Enjoy my coming amidst smiles and songs;
!!	Love your lovers
!!	Now that beloved April makes your beautiful face bloom:
!!	Spring for you will not return forever.
!!@@END:		VERSES
!!@OTHER_CRIT_ED:   None
!!@ATTRIBUTION_ABOUT:	Secure
!!		<br>
!!		This poem appears in the partly autograph manuscript Tassiana N.6.5, Civica Biblioteca Angelo Mai, Bergamo. According to [Massimo Castellozzi] {footnote: Massimo Castellozzi, "Aspetti della tradizione delle <i>Rime disperse</i> di Torquato Tasso," <i>L'ellisse. Studi storici di letteratura italian</i> VIII, vol. 2 (2013): 78}, the folios 164r-172v, which include <i>Rime</i> 353, 354, 356, 358, 359, 361, and NSM1, are in Tasso's hand.
!!@DATING:	Early 1590s
!!		<br>
!!		Before being incorporated into the manscript Tassiana N.6.5, Civica Biblioteca Angelo Mai, Bergamo, this poem used to belong to the Torella codex (MA 462, Pierpont Morgan Library, New York City, NY), a manuscript assembled in Naples and containing for the most part poems and letters that Tasso wrote during his stay in the city in the early 1590s.
!!@DEDICATEE:
!!@COMMENTARY:
!!@@END:		VERSEDATA
!!@@BEGIN:	SETTING
!!@CATALOGNUM:	Trm0361c
!!@RIMETITLE:	Io son la Primavera
!!@SOLERTI:	361
!!@COMPOSER:	Stefani, Giovanni
!!@PRINCEPSFORMAT: anthology
!!@PRINCEPSTITLE:	Scherzi amorosi. Canzonette ad una voce sola. Libro secondo
!!@PRINCEPSLOC:	Venice
!!@NORMLOC:	Venice
!!@NORMPUB:	Giacomo Vincenzi
!!@NORMPUBSHORT:	G. Vincenzi
!!@PRINCEPSPUB:	Vincenti
!!@PRINCEPSYEAR:	1620
!!@PRINCEPSRISM:	
!!@REPRINTS:	
!!@OVOICES:	1+bc+alfabeto
!!@EXTANTVOICES:	1+bc+alfabeto
!!@PARTBOOKS:	
!!@EXTPARTBOOKS:	
!!@OCLEFS:	C1,F4
!!@OMENSURATION:	C; 3
!!@OKEYSIG:	b-
!!@FINAL:	F
!!@TIMPEDITOR:	Schleuse, Paul
!!@NOTE:		
!!@@END:		SETTING
